X: 17737
T: Homes Of Kinattycasey, The
R: hornpipe
M: 4/4
K: Gmajor
|:(3DEF|G2BG EDAF|G2BG D2GF|E2AB cAFA|GBdg ecAF|
G2BG EDAF|G2BG D2GF|E2AB cAFA|G2GF G2:|
|:D2|GBd^c d2AG|FAd^c d2cd|edef ge^ce|d2d^c defd|
baba gBdB|~a3g fad2|dgfe dcBA|G2GF G2:|

